src/assets/linkedin.svg

<svg width="31" height="35" viewBox="0 0 31 35" fill="none" xmlns="http://www.w3.org/2000/svg">
<path d="M17.2222 34.3867H10.3333V11.7521H17.2222V15.5245C18.6906 13.4785 20.9174 12.2587 23.293 12.1991C27.5651 12.2251 31.0123 16.0326 31 20.7116V34.3867H24.1111V21.6547C23.8356 19.5471 22.1852 17.9834 20.2412 17.9879C19.3909 18.0174 18.5883 18.4251 18.0186 19.1171C17.4489 19.809 17.1613 20.7254 17.2222 21.6547V34.3867ZM6.88887 34.3867H0V11.7521H6.88887V34.3867ZM3.44444 7.97967C1.54213 7.97967 0 6.2907 0 4.20724C0 2.12379 1.54213 0.434814 3.44444 0.434814C5.34675 0.434814 6.88887 2.12379 6.88887 4.20724C6.88887 5.20775 6.52598 6.16729 5.88002 6.87475C5.23406 7.58222 4.35796 7.97967 3.44444 7.97967Z" fill="#0A0A14"/>
</svg>

<svg width="31" height="35" fill="none" xmlns="http://www.w3.org/2000/svg">
<path d="M17.222 34.387h-6.889V11.752h6.89v3.772c1.468-2.045 3.694-3.265 6.07-3.325 4.272.026 7.72 3.834 7.707 8.513v13.675h-6.889V21.655c-.275-2.108-1.926-3.672-3.87-3.667-.85.03-1.653.437-2.222 1.13a3.63 3.63 0 0 0-.797 2.537v12.732Zm-10.333 0H0V11.752h6.889v22.635ZM3.444 7.98C1.542 7.98 0 6.29 0 4.207S1.542.435 3.444.435c1.903 0 3.445 1.689 3.445 3.772 0 1-.363 1.96-1.009 2.668-.646.707-1.522 1.105-2.436 1.105Z" fill="#0A0A14"/>
</svg>
